.gitbook/assets/Usage Data.svg

<svg width="404" height="251" viewBox="0 0 404 251" fill="none" xmlns="http://www.w3.org/2000/svg">
<rect width="404" height="251" fill="#68E6B8"/>
<path fill-rule="evenodd" clip-rule="evenodd" d="M238.538 94.1934C238.539 94.1935 238.537 94.2012 238.532 94.2165C238.535 94.201 238.538 94.1934 238.538 94.1934ZM238.463 94.3552C238.34 94.145 238.029 93.7327 237.279 93.1346C235.825 91.9752 233.378 90.6853 229.857 89.4975C222.872 87.1411 212.865 85.586 201.553 85.586C190.241 85.586 180.234 87.1411 173.249 89.4975C169.728 90.6853 167.281 91.9752 165.827 93.1346C165.077 93.7327 164.766 94.145 164.643 94.3552C164.766 94.5654 165.077 94.9777 165.827 95.5758C167.281 96.7352 169.728 98.0252 173.249 99.2129C180.234 101.569 190.241 103.124 201.553 103.124C212.865 103.124 222.872 101.569 229.857 99.2129C233.378 98.0252 235.825 96.7352 237.279 95.5758C238.029 94.9777 238.34 94.5654 238.463 94.3552ZM164.568 94.1934C164.568 94.1934 164.571 94.2011 164.574 94.2166C164.569 94.2012 164.567 94.1935 164.568 94.1934ZM164.568 94.517C164.567 94.517 164.569 94.5092 164.574 94.4939C164.571 94.5094 164.568 94.517 164.568 94.517ZM238.532 94.494C238.537 94.5092 238.539 94.517 238.538 94.517C238.538 94.517 238.535 94.5094 238.532 94.494ZM201.553 108.71C225.054 108.71 244.106 102.283 244.106 94.3552C244.106 86.4271 225.054 80 201.553 80C178.052 80 159 86.4271 159 94.3552C159 102.283 178.052 108.71 201.553 108.71Z" fill="#022719"/>
<path fill-rule="evenodd" clip-rule="evenodd" d="M163.522 163.94C161.231 162.252 159.283 159.907 159.283 156.902H164.869C164.869 157.296 165.131 158.187 166.836 159.443C168.485 160.659 171.05 161.87 174.47 162.936C181.278 165.058 190.854 166.414 201.553 166.414C212.253 166.414 221.963 165.058 228.906 162.932C232.395 161.864 235.029 160.648 236.729 159.425C238.498 158.152 238.75 157.262 238.75 156.902H244.336C244.336 159.941 242.314 162.288 239.992 163.959C237.6 165.68 234.325 167.115 230.542 168.274C222.941 170.601 212.656 172 201.553 172C190.451 172 180.288 170.601 172.808 168.269C169.084 167.109 165.868 165.669 163.522 163.94Z" fill="#022719"/>
<path fill-rule="evenodd" clip-rule="evenodd" d="M163.522 144.459C161.231 142.771 159.283 140.425 159.283 137.421H164.869C164.869 137.814 165.131 138.706 166.836 139.962C168.485 141.177 171.05 142.389 174.47 143.455C181.278 145.577 190.854 146.932 201.553 146.932C212.253 146.932 221.963 145.577 228.906 143.451C232.395 142.382 235.029 141.167 236.729 139.943C238.498 138.67 238.75 137.78 238.75 137.421H244.336C244.336 140.459 242.314 142.806 239.992 144.477C237.6 146.198 234.325 147.634 230.542 148.792C222.941 151.119 212.656 152.518 201.553 152.518C190.451 152.518 180.288 151.119 172.808 148.788C169.084 147.627 165.868 146.188 163.522 144.459Z" fill="#022719"/>
<path fill-rule="evenodd" clip-rule="evenodd" d="M163.522 121.9C161.231 120.212 159.283 117.867 159.283 114.862H164.869C164.869 115.256 165.131 116.147 166.836 117.403C168.485 118.618 171.05 119.83 174.47 120.896C181.278 123.018 190.854 124.374 201.553 124.374C212.253 124.374 221.963 123.018 228.906 120.892C232.395 119.824 235.029 118.608 236.729 117.385C238.498 116.112 238.75 115.222 238.75 114.862H244.336C244.336 117.901 242.314 120.247 239.992 121.919C237.6 123.64 234.325 125.075 230.542 126.234C222.941 128.561 212.656 129.96 201.553 129.96C190.451 129.96 180.288 128.561 172.808 126.229C169.084 125.069 165.868 123.629 163.522 121.9Z" fill="#022719"/>
<path fill-rule="evenodd" clip-rule="evenodd" d="M241.543 90.5371C243.085 90.5371 244.336 91.7876 244.336 93.3301V158.441C244.336 159.984 243.085 161.234 241.543 161.234C240 161.234 238.75 159.984 238.75 158.441V93.3301C238.75 91.7876 240 90.5371 241.543 90.5371Z" fill="#022719"/>
<path fill-rule="evenodd" clip-rule="evenodd" d="M162.076 92.0752C163.619 92.0752 164.869 93.3257 164.869 94.8682V158.954C164.869 160.497 163.619 161.747 162.076 161.747C160.534 161.747 159.283 160.497 159.283 158.954V94.8682C159.283 93.3257 160.534 92.0752 162.076 92.0752Z" fill="#022719"/>
</svg>

<svg xmlns="http://www.w3.org/2000/svg" width="404" height="251" fill="none" viewBox="0 0 404 251"><path fill="#68E6B8" d="M0 0h404v251H0z"/><path fill="#022719" fill-rule="evenodd" d="M238.538 94.193c.001 0-.001.008-.006.023a.145.145 0 0 1 .006-.023Zm-.075.162c-.123-.21-.434-.622-1.184-1.22-1.454-1.16-3.901-2.45-7.422-3.638-6.985-2.356-16.992-3.911-28.304-3.911-11.312 0-21.319 1.555-28.304 3.912-3.521 1.187-5.968 2.477-7.422 3.637-.75.598-1.061 1.01-1.184 1.22.123.21.434.623 1.184 1.22 1.454 1.16 3.901 2.45 7.422 3.638 6.985 2.356 16.992 3.911 28.304 3.911 11.312 0 21.319-1.555 28.304-3.911 3.521-1.188 5.968-2.478 7.422-3.637.75-.598 1.061-1.01 1.184-1.22Zm-73.895-.162.006.024c-.005-.016-.007-.023-.006-.024Zm0 .324c-.001 0 .001-.008.006-.023a.145.145 0 0 1-.006.023Zm73.964-.023c.005.015.007.023.006.023l-.006-.023Zm-36.979 14.216c23.501 0 42.553-6.427 42.553-14.355 0-7.928-19.052-14.355-42.553-14.355C178.052 80 159 86.427 159 94.355c0 7.928 19.052 14.355 42.553 14.355Zm-38.031 55.23c-2.291-1.688-4.239-4.033-4.239-7.038h5.586c0 .394.262 1.285 1.967 2.541 1.649 1.216 4.214 2.427 7.634 3.493 6.808 2.122 16.384 3.478 27.083 3.478 10.7 0 20.41-1.356 27.353-3.482 3.489-1.068 6.123-2.284 7.823-3.507 1.769-1.273 2.021-2.163 2.021-2.523h5.586c0 3.039-2.022 5.386-4.344 7.057-2.392 1.721-5.667 3.156-9.45 4.315-7.601 2.327-17.886 3.726-28.989 3.726-11.102 0-21.265-1.399-28.745-3.731-3.724-1.16-6.94-2.6-9.286-4.329Zm0-19.481c-2.291-1.688-4.239-4.034-4.239-7.038h5.586c0 .393.262 1.285 1.967 2.541 1.649 1.215 4.214 2.427 7.634 3.493 6.808 2.122 16.384 3.477 27.083 3.477 10.7 0 20.41-1.355 27.353-3.481 3.489-1.069 6.123-2.284 7.823-3.508 1.769-1.273 2.021-2.163 2.021-2.522h5.586c0 3.038-2.022 5.385-4.344 7.056-2.392 1.721-5.667 3.157-9.45 4.315-7.601 2.327-17.886 3.726-28.989 3.726-11.102 0-21.265-1.399-28.745-3.73-3.724-1.161-6.94-2.6-9.286-4.329Zm0-22.559c-2.291-1.688-4.239-4.033-4.239-7.038h5.586c0 .394.262 1.285 1.967 2.541 1.649 1.215 4.214 2.427 7.634 3.493 6.808 2.122 16.384 3.478 27.083 3.478 10.7 0 20.41-1.356 27.353-3.482 3.489-1.068 6.123-2.284 7.823-3.507 1.769-1.273 2.021-2.163 2.021-2.523h5.586c0 3.039-2.022 5.385-4.344 7.057-2.392 1.721-5.667 3.156-9.45 4.315-7.601 2.327-17.886 3.726-28.989 3.726-11.102 0-21.265-1.399-28.745-3.731-3.724-1.16-6.94-2.6-9.286-4.329Z" clip-rule="evenodd"/><path fill="#022719" fill-rule="evenodd" d="M241.543 90.537a2.793 2.793 0 0 1 2.793 2.793v65.111a2.793 2.793 0 0 1-5.586 0v-65.11a2.793 2.793 0 0 1 2.793-2.794Zm-79.467 1.538a2.793 2.793 0 0 1 2.793 2.793v64.086a2.792 2.792 0 1 1-5.586 0V94.868a2.793 2.793 0 0 1 2.793-2.793Z" clip-rule="evenodd"/></svg>
